X:1
T:Jeboult, 76.76
T:Jeboult, 76.76
T:Harold Arthur Jeboult, 1906
T:Public Domain Courtesy of the Cyber Hymnal™
C:Harold Arthur Jeboult, 1906
Z:Public Domain
Z:Courtesy of the Cyber Hymnal™
%%score ( 1 2 ) ( 3 4 )
L:1/8
Q:1/4=108
M:4/4
K:Bb
V:1 treble 
V:2 treble 
V:3 bass 
V:4 bass 
V:1
 B2 | (AB) [Gc]2 [FB]2 (AG) | ^FG A2 D2 D2 | G2 [DF]2 (ED) G2 | [B,D]6 [Fd]2 | c2 B2 [DA]2 [DB]2 | %6
 [EA]2 [CG]2 [D^F]2 [A,D]2 | [DG]2 [DF][CE] [B,D]2 A2 | [B,G]6 |] %9
V:2
 (B,C) | D2 x3 E2 x | D4 D2 (DA,) | (B,C) x G,2 (G,A,) x | x8 | (FE) (DC) x4 | x8 | x6 (DC) | x6 |] %9
V:3
 G,2 | [F,A,]2 (G,A,) [D,B,]2 (CB,) | A,2 (DC) [G,B,]2 [=F,A,]2 | (G,A,) [D,B,]2 [C,C]2 [C,E,]2 | %4
 [B,,F,]6 B,2 | [F,A,]2 G,2 [D,^F,]2 D2 | (CB,) (A,G,) [D,A,]2 ^F,2 | %7
 [B,,G,]2 [C,G,]2 (G,=E,) [D,^F,]2 | [G,,D,G,]6 |] %9
V:4
 G,2 | x2 E,2 x C,2 x | (D,=E,) ^F,2 x4 | E,2 x6 | x6 B,2 | x2 G,2 (G,,B,,) x2 | %6
 C,2 E,2 x (D,C,) x | x4 D,2 x2 | x6 |] %9

